X: 2113
T: Lady Grace Stewart's    Strathspey
%R: strathspey
B: Niel Gow & Sons "A Second Collection of Strathspey Reels, etc." v.2 p.11 #3
Z: 2022 John Chambers <jc:trillian.mit.edu>
M: C
L: 1/8
K: Bm
%%slurgraces 1
%%graceslurs 1
% - - - - - - - - - -
V: 1 staves=2
|:\
B,BTB>c {Bc}dB A2 | B,BTB>c dBdf |\
ef/^g/ af eA Tc2 | B,B-B>c dBdf :|\
(d/e/f/g/) af eA Tc2 | (d/e/f/g/) (ag) fdfa |
gb/g/ fa/f/ eA Tc2 | B,B-TB>c dBdf ||\
(d/e/f/g/) af eA Tc2 | (d/e/f/g/) ag fdfa |\
(3gbg (3faf (3efd {d}(3cBA | TB.cTd>e fBdf |]
% - - - - - - - - - -
% Voice 2 preserves the staff layout in the book.
V: 2 clef=bass middle=d
|:\
b2b2 b2a2 | b2b2 b2b2 | c'2d'2 c'2a2 | b2f2 d2B2 :| d2d2 A2A2 | d2d2 d2d'2 |
c'2d'2 c'2a2 | b2f2 d2B2 || d2c'2 a2A2 | d2d2 d2d2 | c2d2 a2A2 | b2f2 d2B2 |]


